!!! OTL: Berkowitz277
!!! Chapter: 1
!!! Section: II
!!! Page: 66
!!! Mode: 
!!! Encoder: DJB
**kern
*staff1
*I"Piano
=1-
*clefG2
*k[b-]
*g:
*M6/8
4dd\
8b-\
4g/
8g/
=2
8.cc/L
16a/K
8f/J
4g/
8g/
=3
8.f/L
16e/K
8f/J
4g/
16b-\LL
16cc\JJ
=4
8.dd\L
16b-\K
8g\J
8cc/L
8a/
8f/J
=5
4g/
8g/
8.f/L
16d/K
8f/J
=6
8.g/L
16b-/L
16a/
16g/JJ
8f/L
8e/
8f/J
=7
4.g/
8r
4r
==
*-
